remix/System/star-half-s-fill.svg

<svg viewBox="0 0 24 24" fill="currentColor" xmlns="http://www.w3.org/2000/svg"><path d="M11.9998 14.6564L14.8165 16.3769L14.0507 13.1664L16.5574 11.0192L13.2673 10.7554L11.9998 7.70792V14.6564ZM11.9998 17L6.12197 20.5902L7.72007 13.8906L2.48926 9.40983L9.35479 8.85942L11.9998 2.5L14.6449 8.85942L21.5104 9.40983L16.2796 13.8906L17.8777 20.5902L11.9998 17Z"/></svg>

<svg viewBox="0 0 24 24" xmlns="http://www.w3.org/2000/svg"><path fill="none" d="M0 0h24v24H0Z"/><path d="M12 14.656l2.817 1.72 -.77-3.21 2.5-2.15 -3.29-.27 -1.27-3.05v6.948Zm0 2.34l-5.88 3.59 1.59-6.7L2.48 9.4l6.86-.55 2.64-6.36 2.64 6.36 6.866.55 -5.24 4.48 1.59 6.7 -5.88-3.59Z"/></svg>
